X:1
T:Title
%%score { ( 1 3 ) | 2 }
L:1/8
M:6/8
K:A
V:1 treble nm="Grand Piano"
V:3 treble 
V:2 bass 
V:1
 z3 z2[Q:1/4=81] [A,CE] | [A,CE][CEA][CEA] [CEA][B,EG][CEA] | [EGB][EFA][EGB] [EAc]2 [A,CE] | %3
 [A,DF][DFB][DFA] [DEG][DF][DEG] |[M:5/8] [CEA]-[CEA]- [CEA]3 |[M:1/8] [A,CE] | %6
[M:3/4] [A,CE][CEA] [CEA][CEA] [B,EG][CEA] | [EGB][EFA] [EGB] [EAc]2 [A,CE] | %8
 [A,DF][DFB] [DFA][DEG] [DF][DEG] |[M:5/8] [CEA]-[CEA]- [CEA]3 |[M:1/8] [CEA] |[M:3/4] [EA]4 z2 | %12
 [CE]E [A,DF] [A,CE]2 [CEA] | [GB]4 z2 | [EGB]c [EAe] [EGB]2 E | cc cc cc | [Fd][Fc] [FB] F2 F | %17
 EA AG AB |[M:5/8] [CEA]-[CEA]- [CEA]3 |] %19
V:2
 z3 z2 A,, | A,,A,,A,, A,,A,,A,, | E,E,E, A,2 A,, | D,D,D, E,E,E, |[M:5/8] A,,-A,,- A,,3 | %5
[M:1/8] A,, |[M:3/4] A,,A,, A,,A,, A,,A,, | E,E, E, A,2 A,, | D,D, D,E, E,E, | %9
[M:5/8] A,,-A,,- A,,3 |[M:1/8] A,, |[M:3/4] A,,A,, A,,A,, A,,[A,,A,] | [A,,A,]C A,, A,,2 A,, | %13
 E,E, E,E, E,E, | E,A C, E,2 [E,G,] | [A,E][A,E] [A,E][F,A,F] [F,A,F][F,A,F] | %16
 [B,,B,][C,A,] [D,B,] [D,B,D]2 [D,B,D] | [E,A,C][E,CE] [E,CE][E,B,E] [E,CE][E,DE] | %18
[M:5/8] A,,-A,,- A,,3 |] %19
V:3
 x6 | x6 | x6 | x6 |[M:5/8] x5 |[M:1/8] x |[M:3/4] x6 | x6 | x6 |[M:5/8] x5 |[M:1/8] x | %11
[M:3/4] CC CC [B,EB][Ec] | x6 | EE EE [EFA][EGB] | x6 | x6 | x6 | x6 |[M:5/8] x5 |] %19

